X: 15599
T: Go Ahead, Back Up!
R: reel
M: 4/4
K: Dmajor
|:"D" AddB "A"cAGE|"D"Adde "D"fd"A"ec|"D"AddB "A"cAAf|"Em"gfed "A"ce A2|
"D"AddB "A"cAAe|"D"fdde "D"fa"A"ge|"D"AddB "A"cAAf|"Em"gfed "A"ce A2:|
|:"D"DA"G"BG "D"AdAB|"A"cAef eaag|"D"fd"A"ec "D"de"Em7"dB|"A"cded cAGE|
"D"DA"G"BG "D"AdAB|"A"cAef eaag|"D"fd"A"ec "D"de"Em7"dB|"A"cAGE "D"D4:|

